img/union-2.svg

<svg fill="none" height="70" viewBox="0 0 70 70" width="70" xmlns="http://www.w3.org/2000/svg"><path d="m69.1428 69.2412v.2857h.2857v-.2857zm-68.285696-34.2857c.000002-18.7777 15.222296-34.000015 33.999996-34.000013v-.571426c-19.0933-.000002-34.57142 15.478139-34.571422 34.571439zm33.999996 34c-18.7777 0-33.999997-15.2223-33.999996-34h-.571426c-.000002 19.0933 15.478122 34.5714 34.571422 34.5714zm34.2857 0h-34.2857v.5714h34.2857zm-.2857-34v34.2857h.5714v-34.2857zm-34-34.000013c18.7777.000002 34 15.222313 34 34.000013h.5714c0-19.0933-15.4781-34.571438-34.5714-34.571439z" fill="#fff"/></svg>

<svg width="70" height="70" viewBox="0 0 70 70" fill="none" xmlns="http://www.w3.org/2000/svg">
<path d="M69.1428 69.2412L69.1428 69.5269L69.4285 69.5269L69.4285 69.2412L69.1428 69.2412ZM0.857104 34.9555C0.857106 16.1778 16.0794 0.955485 34.8571 0.955487L34.8571 0.384061C15.7638 0.384059 0.28568 15.8622 0.285678 34.9555L0.857104 34.9555ZM34.8571 68.9555C16.0794 68.9555 0.857103 53.7332 0.857104 34.9555L0.285678 34.9555C0.285676 54.0488 15.7638 69.5269 34.8571 69.5269L34.8571 68.9555ZM69.1428 68.9555L34.8571 68.9555L34.8571 69.5269L69.1428 69.5269L69.1428 68.9555ZM68.8571 34.9555L68.8571 69.2412L69.4285 69.2412L69.4285 34.9555L68.8571 34.9555ZM34.8571 0.955487C53.6348 0.955489 68.8571 16.1778 68.8571 34.9555L69.4285 34.9555C69.4285 15.8622 53.9504 0.384062 34.8571 0.384061L34.8571 0.955487Z" fill="white"/>
</svg>
